static/logos/coda-glyph-color.svg

<svg width="100" height="35" viewBox="0 0 100 35" fill="none" xmlns="http://www.w3.org/2000/svg">
<g clip-path="url(#clip0_1_3216)">
<path d="M0 20.9754C0 29.227 5.71166 34.3558 12.9387 34.3558C15.4785 34.3558 18.0184 33.7423 19.8712 32.3558V25.908C18.1923 27.407 16.0176 28.231 13.7669 28.2208C10.0123 28.2208 7.0184 25.5337 7.0184 20.9939C7.0184 16.454 10 13.8159 13.7669 13.8159C16.0293 13.7727 18.2231 14.5932 19.9018 16.1104V9.65029C18.0613 8.23311 15.5092 7.69324 12.9693 7.69324C5.71166 7.69324 0 12.8221 0 20.9754Z" fill="#101010"/>
<path d="M34.5968 7.69324C27.2349 7.69324 22.0938 13.1656 22.0938 20.9754C22.0938 28.7853 27.2226 34.3558 34.5968 34.3558C41.9711 34.3558 47.1428 28.8343 47.1428 20.9754C47.1428 13.1165 42.0201 7.69324 34.5968 7.69324ZM34.5968 28.3497C31.0815 28.3497 29.1244 25.2822 29.1244 20.9877C29.1244 16.6932 31.0815 13.6626 34.5968 13.6626C38.1122 13.6626 40.0631 16.73 40.0631 20.9877C40.0631 25.2454 38.1612 28.3497 34.5968 28.3497Z" fill="#101010"/>
<path d="M67.2784 10.3804C66.441 9.52031 65.4379 8.83877 64.3293 8.37693C63.2214 7.91509 62.0312 7.68251 60.8306 7.69325C53.4073 7.69325 49.2109 13.6994 49.2109 20.9755C49.2109 28.3374 53.4073 34.3558 60.8306 34.3558C62.0293 34.3555 63.2165 34.1179 64.3232 33.6567C65.43 33.1955 66.4342 32.5199 67.2784 31.6687V33.773H74.3582V0H67.2784V10.3804ZM67.2784 25.227C66.8195 26.112 66.1257 26.8534 65.2723 27.3696C64.4195 27.8859 63.441 28.1571 62.4441 28.1534C58.5852 28.1534 56.3091 25.0859 56.3091 20.9755C56.3091 16.865 58.6036 13.8466 62.4441 13.8466C63.4465 13.8488 64.4287 14.1286 65.2821 14.6548C66.1355 15.1811 66.8263 15.9334 67.2784 16.8282V25.227Z" fill="#101010"/>
<path d="M88.5249 7.69324C85.1077 7.69324 81.8378 8.62575 79.9789 9.79753V15.9325C82.0519 14.5666 84.4782 13.8353 86.9605 13.8282C90.574 13.8282 92.6783 15.3926 92.6783 17.8834V19.3006C91.6476 18.5644 89.1568 17.7853 86.9605 17.7853C81.347 17.7853 77.1016 21.1043 77.1016 25.9877C77.1016 31.2638 81.347 34.2392 86.5249 34.2392C89.304 34.2392 91.8439 33.2638 92.6598 32.4356V33.8037H99.4942V17.4601C99.5126 11.2577 95.5065 7.69324 88.5249 7.69324ZM92.6783 26.8343C92.0648 28.2024 90.1875 29.0368 88.1813 29.0368C85.9359 29.0368 83.6414 28.1043 83.6414 25.908C83.6414 23.7116 85.9359 22.7853 88.1813 22.7853C90.1875 22.7853 92.0402 23.6135 92.6783 24.9816V26.8343Z" fill="#101010"/>
</g>
<defs>
<clipPath id="clip0_1_3216">
<rect width="100" height="34.3558" fill="white"/>
</clipPath>
</defs>
</svg>

<svg xmlns="http://www.w3.org/2000/svg" width="182.857" height="64" fill="none" viewBox="0 0 100 35"><g fill="#101010" clip-path="url(#a)"><path d="M0 20.975c0 8.252 5.712 13.38 12.939 13.38 2.54 0 5.08-.613 6.932-2v-6.447a9.104 9.104 0 0 1-6.104 2.313c-3.755 0-6.749-2.687-6.749-7.227 0-4.54 2.982-7.178 6.749-7.178a8.896 8.896 0 0 1 6.135 2.294V9.65c-1.84-1.417-4.393-1.957-6.933-1.957C5.712 7.693 0 12.823 0 20.975ZM34.597 7.693c-7.362 0-12.503 5.473-12.503 13.282 0 7.81 5.129 13.38 12.503 13.38 7.374 0 12.546-5.52 12.546-13.38 0-7.859-5.123-13.282-12.546-13.282Zm0 20.657c-3.516 0-5.473-3.068-5.473-7.362 0-4.295 1.957-7.325 5.473-7.325 3.515 0 5.466 3.067 5.466 7.325 0 4.257-1.902 7.362-5.466 7.362ZM67.278 10.38a8.884 8.884 0 0 0-6.447-2.687c-7.424 0-11.62 6.006-11.62 13.283 0 7.361 4.196 13.38 11.62 13.38a9.086 9.086 0 0 0 6.447-2.687v2.104h7.08V0h-7.08v10.38Zm0 14.847a5.419 5.419 0 0 1-4.834 2.926c-3.859 0-6.135-3.067-6.135-7.177 0-4.111 2.295-7.13 6.135-7.13a5.43 5.43 0 0 1 4.834 2.982v8.399ZM88.525 7.693c-3.417 0-6.687.933-8.546 2.105v6.134a12.755 12.755 0 0 1 6.981-2.104c3.614 0 5.718 1.565 5.718 4.055v1.418c-1.03-.737-3.521-1.516-5.718-1.516-5.613 0-9.858 3.32-9.858 8.203 0 5.276 4.245 8.251 9.423 8.251 2.779 0 5.319-.975 6.135-1.803v1.368h6.834V17.46c.019-6.202-3.987-9.767-10.97-9.767Zm4.153 19.141c-.613 1.368-2.49 2.203-4.497 2.203-2.245 0-4.54-.933-4.54-3.129 0-2.196 2.295-3.123 4.54-3.123 2.007 0 3.86.828 4.497 2.197v1.852Z"/></g><defs><clipPath id="a"><path fill="#fff" d="M0 0h100v34.356H0z"/></clipPath></defs></svg>
